X:1
T:Title
%%score { ( 1 3 ) | ( 2 4 ) }
L:1/8
M:4/4
K:A
V:1 treble nm="Grand Piano"
V:3 treble 
V:2 bass 
V:4 bass 
V:1
 z4 z2 z[Q:1/4=94] [Ec] | [Ec]>[CE] [CE]>[Ec] [Ec]2 [CE]>[Ec] | c>B B>^A B3 d | %3
 d>E E>d d2 [Ec]>[Ec] | [EB]>[A,^DA] [A,DG]>[A,DF] [G,E]2 z [Ec] | %5
 [Ec]>[CE] [CE]>[Ec] [Ec]2 [CE]>[Ec] | B>A G>A B2 z d | d>E E>d d2 B>B | %8
[M:7/8] [Ec]>[Ec][A^d]>[Ad] [Ge]3 |[M:1/8] e |[M:4/4] e6 z2 | A4 z4 | d6 z2 | F4 z4 | e6 z2 | %15
 G4 z4 | E6[K:bass][K:treble] z2 |[M:7/8] A-[CA-][DA-]>[DA-] [C-A]2 C |] %18
V:2
 z4 z2 z [A,,A,] | [A,,A,]>[A,,A,] [A,,A,]>[A,,A,] [A,,A,]2 [A,,A,]>[A,,A,] | %2
 [E,A,E]>[E,G,E] [E,G,E]>[E,F,E] [E,G,E]3 [E,G,E] | %3
 [E,G,E]>[E,G,] [E,G,]>[E,G,E] [E,G,E]2 [A,,A,]>[A,,A,] | [B,,G,]>B,, B,,>B,, E,2 z [A,,A,] | %5
 [A,,A,]>[A,,A,] [A,,A,]>[A,,A,] [A,,A,]2 [A,,A,]>[A,,A,] | %6
 [E,G,E]>[E,A,E] [E,B,E]>[E,A,E] [E,G,E]2 z [E,G,E] | %7
 [E,G,E]>[E,G,] [E,G,]>[E,G,E] [E,G,E]2 [E,G,E]>[E,G,E] | %8
[M:7/8] [A,,A,]>[A,,A,][B,,F,]>[B,,B,] [E,B,]3 |[M:1/8] z | %10
[M:4/4] z [A,,A,] [C,G,]>[E,A,] .[A,C]2 z2 | z [E,A,] [E,G,]>[E,A,] [E,B,E]2 z2 | %12
 z [E,G,] [E,G,]>[E,B,] .E,2 z2 | z [E,B,] [F,B,]>[G,B,] .[A,C]2 z2 | %14
 z [A,C] [A,C]>[A,D] .[A,E]2 z2 | z [B,,A,] [B,,A,]>[C,A,] [D,A,D]2 D2 | C6 z2 | %17
[M:7/8] [A,,E,][A,,E,][A,,F,]>[A,,F,] [A,,E,]3 |] %18
V:3
 x8 | x8 | x8 | x8 | x8 | x8 | x8 | x8 |[M:7/8] x7 |[M:1/8] x |[M:4/4] z c B>A Ec A>E | %11
 z E E>E G2 z d | z B B>G DB G>E | z D D>D E2 z e | z E A>B cc A>E | z D D>D F2 F2 | %16
 z[K:bass] A, A,>A, A,E[K:treble] F>G |[M:7/8] C z z z z z2 |] %18
V:4
 x8 | x8 | x8 | x8 | x8 | x8 | x8 | x8 |[M:7/8] x7 |[M:1/8] x |[M:4/4] x8 | x8 | x8 | x8 | x8 | %15
 x8 | z E, E,>E, E,[E,A,C] [E,A,D]>[D,E,D] |[M:7/8] x7 |] %18

